img/edge.svg

<svg width="24" height="25" viewBox="0 0 24 25" fill="none" xmlns="http://www.w3.org/2000/svg">
<path d="M21.666 17.873C21.346 18.038 21.016 18.181 20.675 18.313C19.5972 18.7146 18.4562 18.9199 17.306 18.919C12.869 18.919 9.006 15.869 9.006 11.949C9.006 10.847 9.644 9.889 10.546 9.393C6.528 9.559 5.504 13.743 5.504 16.188C5.504 23.115 11.89 23.82 13.266 23.82C14.003 23.82 15.126 23.6 15.798 23.39C15.8396 23.3801 15.8799 23.3654 15.918 23.346C18.5003 22.4489 20.7015 20.7015 22.161 18.39C22.371 18.071 22.007 17.686 21.666 17.873Z" fill="url(#paint0_linear_1_78)"/>
<path d="M9.908 22.641C9.06977 22.1217 8.3436 21.4404 7.772 20.637C6.84487 19.3391 6.34822 17.783 6.352 16.188C6.34822 15.0335 6.60697 13.8932 7.10868 12.8534C7.61039 11.8136 8.34193 10.9015 9.248 10.186C9.64964 9.87599 10.0811 9.60667 10.536 9.382C10.833 9.239 11.328 8.997 11.989 9.008C13.089 9.019 13.926 9.581 14.399 10.219C14.7756 10.7261 14.9837 11.3385 14.994 11.97C14.994 11.948 17.284 4.504 7.486 4.504C3.391 4.504 0 8.414 0 11.849C0 14.019 0.506 15.759 1.134 17.102C1.83756 18.5965 2.84051 19.9307 4.08073 21.0217C5.32095 22.1128 6.77201 22.9376 8.344 23.445C9.52876 23.8269 10.7662 24.0203 12.011 24.018C13.331 24.018 14.609 23.798 15.809 23.401C15.1179 23.6187 14.3976 23.73 13.673 23.731C12.3413 23.7228 11.0381 23.3455 9.908 22.641Z" fill="url(#paint1_linear_1_78)"/>
<path d="M14.279 13.964C14.202 14.063 13.97 14.194 13.97 14.492C13.97 14.734 14.124 14.977 14.41 15.175C15.765 16.111 18.297 15.99 18.308 15.99C19.354 15.99 20.3 15.693 21.148 15.208C21.534 14.988 21.886 14.712 22.205 14.415C23.306 13.369 23.978 11.893 24 10.252C24.022 8.149 23.25 6.75 22.932 6.134C20.95 2.235 16.668 0 12 0C5.427 0 0.088 5.286 0 11.838C0.044 8.413 3.446 5.638 7.497 5.638C7.827 5.638 9.699 5.671 11.438 6.585C12.968 7.389 13.772 8.358 14.334 9.327C14.917 10.329 15.016 11.596 15.016 12.091C15.016 12.587 14.752 13.347 14.279 13.964Z" fill="url(#paint2_radial_1_78)"/>
<defs>
<linearGradient id="paint0_linear_1_78" x1="-0.00430658" y1="12.0065" x2="24.0034" y2="12.0065" gradientUnits="userSpaceOnUse">
<stop stop-color="#0C59A4"/>
<stop offset="1" stop-color="#114A8B"/>
</linearGradient>
<linearGradient id="paint1_linear_1_78" x1="21.7369" y1="5.96081" x2="9.37025" y2="22.5706" gradientUnits="userSpaceOnUse">
<stop stop-color="#1B9DE2"/>
<stop offset="0.162" stop-color="#1595DF"/>
<stop offset="0.667" stop-color="#0680D7"/>
<stop offset="1" stop-color="#0078D4"/>
</linearGradient>
<radialGradient id="paint2_radial_1_78" cx="0" cy="0" r="1" gradientUnits="userSpaceOnUse" gradientTransform="translate(2.36617 4.38612) rotate(92.128) scale(18.9898 40.4341)">
<stop stop-color="#35C1F1"/>
<stop offset="0.111" stop-color="#34C1ED"/>
<stop offset="0.232" stop-color="#2FC2DF"/>
<stop offset="0.315" stop-color="#2BC3D2"/>
<stop offset="0.673" stop-color="#36C752"/>
<stop offset="1" stop-color="#36C752"/>
</radialGradient>
</defs>
</svg>

<svg xmlns="http://www.w3.org/2000/svg" width="24" height="24" fill="none" viewBox="0 0 24 24">
  <g clip-path="url(#a)">
    <path fill="url(#b)" d="M21.666 17.873c-.32.165-.65.308-.991.44a9.628 9.628 0 0 1-3.369.606c-4.437 0-8.3-3.05-8.3-6.97 0-1.102.638-2.06 1.54-2.556-4.018.166-5.042 4.35-5.042 6.795 0 6.927 6.386 7.632 7.762 7.632.737 0 1.86-.22 2.532-.43a.539.539 0 0 0 .12-.044 12.066 12.066 0 0 0 6.243-4.956c.21-.319-.154-.704-.495-.517Z"/>
    <path fill="url(#c)" d="M9.908 22.641a7.411 7.411 0 0 1-2.136-2.004 7.623 7.623 0 0 1-1.42-4.449 7.616 7.616 0 0 1 2.896-6.002 7.658 7.658 0 0 1 1.288-.804c.297-.143.792-.385 1.453-.374 1.1.011 1.937.573 2.41 1.211a3.02 3.02 0 0 1 .595 1.751c0-.022 2.29-7.466-7.508-7.466C3.391 4.504 0 8.414 0 11.849c0 2.17.506 3.91 1.134 5.253a12.065 12.065 0 0 0 7.21 6.343 11.88 11.88 0 0 0 3.667.573c1.32 0 2.598-.22 3.798-.617a7.14 7.14 0 0 1-2.136.33 7.2 7.2 0 0 1-3.765-1.09Z"/>
    <path fill="url(#d)" d="M14.279 13.964c-.077.099-.309.23-.309.528 0 .242.154.485.44.683 1.355.936 3.887.815 3.898.815 1.046 0 1.992-.297 2.84-.782.386-.22.738-.496 1.057-.793 1.101-1.046 1.773-2.522 1.795-4.163.022-2.103-.75-3.502-1.068-4.118C20.95 2.235 16.668 0 12 0 5.427 0 .088 5.286 0 11.838c.044-3.425 3.446-6.2 7.497-6.2.33 0 2.202.033 3.941.947 1.53.804 2.334 1.773 2.896 2.742.583 1.002.682 2.269.682 2.764 0 .496-.264 1.256-.737 1.873Z"/>
  </g>
  <defs>
    <linearGradient id="b" x1="5.501" x2="22.225" y1="16.605" y2="16.605" gradientUnits="userSpaceOnUse">
      <stop stop-color="#0C59A4"/>
      <stop offset="1" stop-color="#114A8B"/>
    </linearGradient>
    <linearGradient id="c" x1="14.318" x2="3.868" y1="9.347" y2="20.726" gradientUnits="userSpaceOnUse">
      <stop stop-color="#1B9DE2"/>
      <stop offset=".162" stop-color="#1595DF"/>
      <stop offset=".667" stop-color="#0680D7"/>
      <stop offset="1" stop-color="#0078D4"/>
    </linearGradient>
    <radialGradient id="d" cx="0" cy="0" r="1" gradientTransform="rotate(92.128 -.93 3.333) scale(18.9898 40.4341)" gradientUnits="userSpaceOnUse">
      <stop stop-color="#35C1F1"/>
      <stop offset=".111" stop-color="#34C1ED"/>
      <stop offset=".232" stop-color="#2FC2DF"/>
      <stop offset=".315" stop-color="#2BC3D2"/>
      <stop offset=".673" stop-color="#36C752"/>
      <stop offset="1" stop-color="#36C752"/>
    </radialGradient>
    <clipPath id="a">
      <path fill="#fff" d="M0 0h24v24H0z"/>
    </clipPath>
  </defs>
</svg>
